X: 14078
T: Freehold, The
R: hornpipe
M: 4/4
K: Dmajor
a3 ^g|:fdAF GFGB|AFDF GECE|Aaaa ba^ga|c'a^gb a3 g|
fdAF G2 GB|AFDF GECE|Aaaa b^gec|d2 dc dfa^g:|
|:fddd AdFd|Adcd AdFf|bagf gfed|caaa ba^ga|
fddd AdFd|fdcd AdFf|bagf gecA|1 d2 dc dfa^g:|2 d2 dc d2 AG||
|:FDFd fedc|BGBd gfed|cAce a^gba|c'ba^g fdAG|
FDFd fedc|BGBd gfed|caaa b^gec|1 d2 dc d2 AG:|2 d2 dc dfa^g||

